dist/images/upload.svg

<svg width="63" height="52" viewBox="0 0 63 52" fill="none" xmlns="http://www.w3.org/2000/svg">
<path fill-rule="evenodd" clip-rule="evenodd" d="M22.8301 19.3988C22.1495 17.9889 21.7679 16.4074 21.7679 14.7368C21.7679 8.80705 26.575 4 32.5048 4C37.5537 4 41.7887 7.48501 42.9355 12.1808C43.305 12.0594 43.6823 11.9554 44.0665 11.8696C45.032 11.6607 46.0394 11.5643 47.0739 11.5949C53.8986 11.7968 59.222 17.4466 59.0234 24.1582C58.876 29.1427 55.7228 33.3625 51.3142 35.1215V39.3473C57.9084 37.4268 62.8089 31.4689 63.0217 24.2765C63.2863 15.3309 56.1992 7.8631 47.1922 7.59665C46.5952 7.57898 46.0047 7.59341 45.4225 7.63834C42.915 3.08506 38.0702 0 32.5048 0C24.3801 0 17.7911 6.57478 17.768 14.694C15.0207 13.3368 11.7431 13.0041 8.56646 14.0156C2.13045 16.0648 -1.45378 22.8554 0.560859 29.1829C2.51842 35.3311 9.04181 38.7798 15.3142 37.0904V33.5399L11.8855 33.5188L11.8855 33.5169C8.48088 33.434 5.41856 31.2553 4.37233 27.9694C3.04728 23.8077 5.38765 19.2255 9.78002 17.827C13.5336 16.6319 17.4089 18.2003 19.2835 21.279C20.2199 20.5079 21.3125 19.8918 22.5331 19.4845C22.6316 19.4548 22.7306 19.4262 22.8301 19.3988ZM30.4529 23.159L33.0366 20L35.6204 23.159L44.4874 34L47.7591 38H42.5915H42.5629L35 28.4732V52H31V28.5655L23.5104 38H23.4818H18.3142L21.5859 34L30.4529 23.159Z" fill="black"/>
</svg>

<svg width="63" height="52" fill="none" xmlns="http://www.w3.org/2000/svg"><path fill-rule="evenodd" clip-rule="evenodd" d="M22.83 19.399a10.695 10.695 0 01-1.062-4.662C21.768 8.807 26.575 4 32.505 4c5.049 0 9.284 3.485 10.43 8.18.37-.12.747-.225 1.131-.31a12.463 12.463 0 013.008-.275c6.825.202 12.148 5.852 11.95 12.563-.148 4.985-3.301 9.204-7.71 10.963v4.226c6.594-1.92 11.495-7.878 11.708-15.07.264-8.946-6.823-16.414-15.83-16.68a16.61 16.61 0 00-1.77.041A14.731 14.731 0 0032.505 0C24.38 0 17.79 6.575 17.768 14.694a12.298 12.298 0 00-9.202-.678C2.13 16.065-1.454 22.856.561 29.183c1.957 6.148 8.48 9.597 14.753 7.907v-3.55l-3.428-.021v-.002c-3.405-.083-6.467-2.262-7.514-5.548-1.325-4.161 1.016-8.744 5.408-10.142 3.754-1.195 7.629.373 9.504 3.452a10.16 10.16 0 013.25-1.794c.098-.03.197-.059.296-.086zm7.623 3.76L33.037 20l2.583 3.159L44.487 34l3.272 4h-5.197L35 28.473V52h-4V28.566L23.51 38h-5.196l3.272-4 8.867-10.841z" fill="#000"/></svg>
